_site/static/book/hardware.svg

<svg height="100" viewBox="0 0 183 100" width="183" xmlns="http://www.w3.org/2000/svg" xmlns:xlink="http://www.w3.org/1999/xlink"><filter id="a" height="93.3%" width="89.1%" x="5.4%" y="6.7%"><feGaussianBlur in="SourceGraphic" stdDeviation="0"/></filter><g fill="none" fill-rule="evenodd"><rect fill="#c3acff" height="96" rx="8" stroke="#9000ff" stroke-width="3" width="179" x="1.745568" y="2.254432"/><g transform="translate(18.245568 16.754432)"><rect fill="#9000ff" height="34" rx="8" width="65"/><path d="m5.94428748 12.0725005c2.72468947 0 4.60802202 1.7972478 5.64999772 5.3917435 1.2392364 3.7388377 3.0736658 5.6082565 5.5032883 5.6082565 2.4296224 0 4.2786666-1.8694188 5.5471325-5.6082565.897503-3.5944957 2.7277167-5.3917435 5.4906409-5.3917435 2.7629243 0 4.5029201 1.7972478 5.2199875 5.3917435.5338603 3.7388377 2.3507493 5.6082565 5.4506669 5.6082565 3.0999177 0 4.9998071-1.8694188 5.699668-5.6082565 1.2001074-3.5944957 3.031321-5.3917435 5.4936408-5.3917435s4.2763567 1.8333333 5.4421106 5.5c1.5264439 3.6666667 3.0546906 5.5 4.5847402 5.5" stroke="#cdff88" stroke-width="3"/></g><rect fill="#9000ff" height="63" rx="8" stroke="#9000ff" stroke-width="4" width="70" x="96.245568" y="18.754432"/><rect fill="#cdff88" height="12" rx="5.5" width="11" x="102.245568" y="63.754432"/><rect fill="#c3acff" height="12" rx="5.5" width="11" x="118.245568" y="63.754432"/><rect fill="#cdff88" height="12" rx="5.5" width="11" x="134.245568" y="63.754432"/><rect fill="#c3acff" height="12" rx="5.5" width="11" x="150.245568" y="63.754432"/><rect fill="#c3acff" height="12" rx="5.5" width="11" x="102.245568" y="43.754432"/><rect fill="#cdff88" height="12" rx="5.5" width="11" x="118.245568" y="43.754432"/><rect fill="#c3acff" height="12" rx="5.5" width="11" x="134.245568" y="43.754432"/><rect fill="#cdff88" height="12" rx="5.5" width="11" x="150.245568" y="43.754432"/><g fill="#c3acff"><rect height="12" rx="5.5" width="11" x="102.245568" y="23.754432"/><rect height="12" rx="5.5" width="11" x="118.245568" y="23.754432"/><rect height="12" rx="5.5" width="11" x="134.245568" y="23.754432"/></g><rect fill="#cdff88" height="12" rx="5.5" width="11" x="150.245568" y="23.754432"/><g transform="translate(27.491137 64.508863)"><path d="m6.83205029 3.24807544 6.13148291 9.19722436c.3063525.4595287.1821786 1.080398-.2773501 1.3867505-.1642675.1095117-.3572752.1679497-.5547002.1679497h-12.26296581c-.55228475 0-1-.4477153-1-1 0-.197425.05843803-.3904327.16794971-.5547002l6.13148291-9.19722436c.30635245-.45952869.9272218-.58370256 1.38675049-.2773501.10985228.07323486.20411524.16749781.27735009.2773501z" fill="#9000ff" filter="url(#a)" transform="matrix(0 1 -1 0 14 2)"/><circle cx="43" cy="8" fill="#cdff88" r="7"/><g fill="#9000ff"><rect height="14" rx="1.5" width="3" x="20.754432" y="1.245568"/><rect height="14" rx="1.5" width="3" x="24.754432" y="1.245568"/></g></g></g></svg>

<?xml version="1.0" encoding="UTF-8"?>
<svg width="183px" height="100px" viewBox="0 0 183 100" version="1.1" xmlns="http://www.w3.org/2000/svg" xmlns:xlink="http://www.w3.org/1999/xlink">
    <title>hardware</title>
    <defs>
        <filter x="5.4%" y="6.7%" width="89.1%" height="93.3%" filterUnits="objectBoundingBox" id="filter-1">
            <feGaussianBlur stdDeviation="0" in="SourceGraphic"></feGaussianBlur>
        </filter>
    </defs>
    <g id="Page-1" stroke="none" stroke-width="1" fill="none" fill-rule="evenodd">
        <g id="hardware">
            <rect id="Rectangle" stroke="#9000FF" stroke-width="3" fill="#C3ACFF" x="1.74556829" y="2.25443171" width="179" height="96" rx="8"></rect>
            <g id="Sin-Wav" transform="translate(18.245568, 16.754432)">
                <rect id="Rectangle" fill="#9000FF" x="0" y="0" width="65" height="34" rx="8"></rect>
                <path d="M5.94428748,12.0725005 C8.66897695,12.0725005 10.5523095,13.8697483 11.5942852,17.464244 C12.8335216,21.2030817 14.667951,23.0725005 17.0975735,23.0725005 C19.5271959,23.0725005 21.3762401,21.2030817 22.644706,17.464244 C23.542209,13.8697483 25.3724227,12.0725005 28.1353469,12.0725005 C30.8982712,12.0725005 32.638267,13.8697483 33.3553344,17.464244 C33.8891947,21.2030817 35.7060837,23.0725005 38.8060013,23.0725005 C41.905919,23.0725005 43.8058084,21.2030817 44.5056693,17.464244 C45.7057767,13.8697483 47.5369903,12.0725005 49.9993101,12.0725005 C52.4616299,12.0725005 54.2756668,13.9058338 55.4414207,17.5725005 C56.9678646,21.2391672 58.4961113,23.0725005 60.0261609,23.0725005" id="Path" stroke="#CDFF88" stroke-width="3"></path>
            </g>
            <g id="Sequencer" transform="translate(94.245568, 16.754432)">
                <rect id="Rectangle-Copy" stroke="#9000FF" stroke-width="4" fill="#9000FF" x="2" y="2" width="70" height="63" rx="8"></rect>
                <rect id="Rectangle-Copy-18" fill="#CDFF88" x="8" y="47" width="11" height="12" rx="5.5"></rect>
                <rect id="Rectangle-Copy-17" fill="#C3ACFF" x="24" y="47" width="11" height="12" rx="5.5"></rect>
                <rect id="Rectangle-Copy-16" fill="#CDFF88" x="40" y="47" width="11" height="12" rx="5.5"></rect>
                <rect id="Rectangle-Copy-15" fill="#C3ACFF" x="56" y="47" width="11" height="12" rx="5.5"></rect>
                <rect id="Rectangle-Copy-22" fill="#C3ACFF" x="8" y="27" width="11" height="12" rx="5.5"></rect>
                <rect id="Rectangle-Copy-21" fill="#CDFF88" x="24" y="27" width="11" height="12" rx="5.5"></rect>
                <rect id="Rectangle-Copy-20" fill="#C3ACFF" x="40" y="27" width="11" height="12" rx="5.5"></rect>
                <rect id="Rectangle-Copy-19" fill="#CDFF88" x="56" y="27" width="11" height="12" rx="5.5"></rect>
                <rect id="Rectangle-Copy-26" fill="#C3ACFF" x="8" y="7" width="11" height="12" rx="5.5"></rect>
                <rect id="Rectangle-Copy-25" fill="#C3ACFF" x="24" y="7" width="11" height="12" rx="5.5"></rect>
                <rect id="Rectangle-Copy-24" fill="#C3ACFF" x="40" y="7" width="11" height="12" rx="5.5"></rect>
                <rect id="Rectangle-Copy-23" fill="#CDFF88" x="56" y="7" width="11" height="12" rx="5.5"></rect>
            </g>
            <g id="Play-Pause-Record" transform="translate(27.491137, 64.508863)">
                <path d="M6.83205029,3.24807544 L12.9635332,12.4452998 C13.2698857,12.9048285 13.1457118,13.5256978 12.6861831,13.8320503 C12.5219156,13.941562 12.3289079,14 12.1314829,14 L-0.131482908,14 C-0.683767658,14 -1.13148291,13.5522847 -1.13148291,13 C-1.13148291,12.802575 -1.07304488,12.6095673 -0.963533203,12.4452998 L5.16794971,3.24807544 C5.47430216,2.78854675 6.09517151,2.66437288 6.5547002,2.97072534 C6.66455248,3.0439602 6.75881544,3.13822315 6.83205029,3.24807544 Z" id="Triangle" fill="#9000FF" filter="url(#filter-1)" transform="translate(6.000000, 8.000000) rotate(-270.000000) translate(-6.000000, -8.000000) "></path>
                <circle id="Oval" fill="#CDFF88" cx="43" cy="8" r="7"></circle>
                <g id="Group" transform="translate(20.000000, 1.000000)" fill="#9000FF">
                    <rect id="Rectangle" x="0.754431711" y="0.245568289" width="3" height="14" rx="1.5"></rect>
                    <rect id="Rectangle-Copy-3" x="4.75443171" y="0.245568289" width="3" height="14" rx="1.5"></rect>
                </g>
            </g>
        </g>
    </g>
</svg>
